Simply-Green-Circles/scalable/apps/anjuta.svg

<svg xmlns="http://www.w3.org/2000/svg" width="48" height="48" viewBox="0 0 12.7 12.7"><path d="M6.34.07a6.29 6.29 0 0 0-6.29 6.3 6.29 6.29 0 0 0 6.3 6.28 6.29 6.29 0 0 0 6.28-6.29A6.29 6.29 0 0 0 6.34.07zm-.01.94a5.4 5.4 0 0 1 5.4 5.4 5.4 5.4 0 0 1-4.54 5.34c.07-.52.06-1.22-.34-1.74-.56-.73-1.29-2.63.01-3.3 0 0 .72 1.07 1.69 1.18 0 0 .1 1.15 1.28.52.3-.17.42-.88.1-1.33l-.24-.35S9.04 4.7 8.46 4.12c0 0-.2-1.01 0-1.48 0 0-.36.2-.47.4 0 0 .04-.6.15-.72 0 0-1.1.68-1.17 1.06 0 0-2.22-.65-4.04 1.1 0 0 .7-.18.95-.09 0 0-2.23 1.26-2.63 2.74 0 0 .72-.47.94-.4-.3.52-.68.88-.76 1.96a5.4 5.4 0 0 1-.51-2.27A5.4 5.4 0 0 1 6.32 1z" fill="#2ca02c"/></svg>

<?xml version="1.0" encoding="UTF-8" standalone="no"?>
<svg
   xmlns:dc="http://purl.org/dc/elements/1.1/"
   xmlns:cc="http://creativecommons.org/ns#"
   xmlns:rdf="http://www.w3.org/1999/02/22-rdf-syntax-ns#"
   xmlns:svg="http://www.w3.org/2000/svg"
   xmlns="http://www.w3.org/2000/svg"
   xmlns:sodipodi="http://sodipodi.sourceforge.net/DTD/sodipodi-0.dtd"
   xmlns:inkscape="http://www.inkscape.org/namespaces/inkscape"
   width="48"
   height="48"
   viewBox="0 0 12.7 12.7"
   version="1.1"
   id="svg4"
   sodipodi:docname="anjuta.svg"
   inkscape:version="0.92.4 (5da689c313, 2019-01-14)">
  <metadata
     id="metadata10">
    <rdf:RDF>
      <cc:Work
         rdf:about="">
        <dc:format>image/svg+xml</dc:format>
        <dc:type
           rdf:resource="http://purl.org/dc/dcmitype/StillImage" />
        <dc:title></dc:title>
      </cc:Work>
    </rdf:RDF>
  </metadata>
  <defs
     id="defs8" />
  <sodipodi:namedview
     pagecolor="#ffffff"
     bordercolor="#666666"
     borderopacity="1"
     objecttolerance="10"
     gridtolerance="10"
     guidetolerance="10"
     inkscape:pageopacity="0"
     inkscape:pageshadow="2"
     inkscape:window-width="1087"
     inkscape:window-height="480"
     id="namedview6"
     showgrid="false"
     inkscape:zoom="4.9166667"
     inkscape:cx="2.1355932"
     inkscape:cy="24"
     inkscape:window-x="0"
     inkscape:window-y="25"
     inkscape:window-maximized="0"
     inkscape:current-layer="svg4" />
  <path
     d="M 6.34,0.07 A 6.29,6.29 0 0 0 0.05,6.37 6.29,6.29 0 0 0 6.35,12.65 6.29,6.29 0 0 0 12.63,6.36 6.29,6.29 0 0 0 6.34,0.07 Z M 6.33,1.01 a 5.4,5.4 0 0 1 5.4,5.4 5.4,5.4 0 0 1 -4.54,5.34 C 7.26,11.23 7.25,10.53 6.85,10.01 6.29,9.28 5.56,7.38 6.86,6.71 c 0,0 0.72,1.07 1.69,1.18 0,0 0.1,1.15 1.28,0.52 0.3,-0.17 0.42,-0.88 0.1,-1.33 L 9.69,6.73 c 0,0 -0.65,-2.03 -1.23,-2.61 0,0 -0.2,-1.01 0,-1.48 0,0 -0.36,0.2 -0.47,0.4 0,0 0.04,-0.6 0.15,-0.72 0,0 -1.1,0.68 -1.17,1.06 0,0 -2.22,-0.65 -4.04,1.1 0,0 0.7,-0.18 0.95,-0.09 0,0 -2.23,1.26 -2.63,2.74 0,0 0.72,-0.47 0.94,-0.4 C 1.89,7.25 1.51,7.61 1.43,8.69 A 5.4,5.4 0 0 1 0.92,6.42 5.4,5.4 0 0 1 6.32,1 Z"
     id="path2"
     inkscape:connector-curvature="0"
     style="fill:#2ca02c" />
</svg>
